src/assets/images/optimism.svg

<svg width="24" height="24" viewBox="0 0 24 24" fill="none" xmlns="http://www.w3.org/2000/svg">
<g id="Tokens" clip-path="url(#clip0_4007_18066)">
<path id="Background" d="M12 24C18.6274 24 24 18.6274 24 12C24 5.37258 18.6274 0 12 0C5.37258 0 0 5.37258 0 12C0 18.6274 5.37258 24 12 24Z" fill="#FF0420"/>
<g id="OP Logo">
<path fill-rule="evenodd" clip-rule="evenodd" d="M6.74418 14.6829C7.20018 15.0189 7.78578 15.1869 8.50098 15.1869C9.36498 15.1869 10.0562 14.9901 10.5698 14.5869C11.0882 14.1789 11.4482 13.5597 11.6594 12.7389C11.789 12.2349 11.8946 11.7117 11.9858 11.1789C12.0146 10.9869 12.029 10.8285 12.029 10.7037C12.029 10.2861 11.9234 9.92615 11.7122 9.62375C11.501 9.31655 11.213 9.08615 10.8482 8.93735C10.4834 8.77895 10.0658 8.70215 9.60498 8.70215C7.90578 8.70215 6.84978 9.52775 6.44178 11.1789C6.29778 11.7885 6.18738 12.3069 6.11058 12.7389C6.08178 12.9309 6.06738 13.0893 6.06738 13.2237C6.06738 13.8525 6.29298 14.3421 6.74418 14.6829ZM9.48498 13.5933C9.24978 13.7901 8.96658 13.8909 8.63058 13.8909C8.05458 13.8909 7.76178 13.6173 7.76658 13.0605C7.76658 12.9261 7.78098 12.8013 7.80498 12.6813C7.91538 12.0957 8.02098 11.6061 8.13138 11.2029C8.23218 10.7901 8.40018 10.4877 8.63538 10.2909C8.87538 10.0941 9.16338 9.99335 9.49938 9.99335C10.0706 9.99335 10.3538 10.2669 10.3538 10.8141C10.3538 10.9485 10.3394 11.0781 10.3154 11.2029C10.2434 11.6253 10.1378 12.1149 9.99858 12.6813C9.89778 13.0941 9.72498 13.3965 9.48498 13.5933Z" fill="white"/>
<path fill-rule="evenodd" clip-rule="evenodd" d="M12.2931 15.0384C12.3315 15.0816 12.3795 15.1008 12.4467 15.1008H13.6707C13.7331 15.1008 13.7907 15.0816 13.8435 15.0384C13.9011 14.9952 13.9299 14.9424 13.9443 14.8752L14.3571 12.9024H15.5715C16.3587 12.9024 16.9779 12.7392 17.4291 12.408C17.8899 12.0768 18.1923 11.568 18.3411 10.8768C18.3747 10.7136 18.3939 10.5552 18.3939 10.4064C18.3939 9.88315 18.1875 9.48475 17.7795 9.20636C17.3763 8.93275 16.8435 8.79355 16.1763 8.79355H13.7811C13.7187 8.79355 13.6611 8.81276 13.6083 8.85595C13.5507 8.89916 13.5171 8.95195 13.5075 9.01915L12.2643 14.8752C12.2547 14.9376 12.2643 14.9904 12.2931 15.0384ZM16.2915 11.4528C16.1043 11.592 15.8883 11.6592 15.6339 11.6592H14.6019L14.9427 10.0464H16.0227C16.2675 10.0464 16.4451 10.0944 16.5459 10.1904C16.6467 10.2816 16.6995 10.416 16.6995 10.5888C16.6995 10.6656 16.6899 10.7568 16.6707 10.8576C16.6083 11.1168 16.4835 11.3136 16.2915 11.4528Z" fill="white"/>
</g>
</g>
<defs>
<clipPath id="clip0_4007_18066">
<rect width="24" height="24" fill="white"/>
</clipPath>
</defs>
</svg>

<svg xmlns="http://www.w3.org/2000/svg" fill="none" viewBox="0 0 24 24"><g clip-path="url(#a)"><path fill="#FF0420" d="M12 24c6.627 0 12-5.373 12-12S18.627 0 12 0 0 5.373 0 12s5.373 12 12 12"/><path fill="#fff" fill-rule="evenodd" d="M6.744 14.683q.684.504 1.757.504c.864 0 1.555-.197 2.069-.6.518-.408.878-1.027 1.09-1.848.129-.504.235-1.027.326-1.56q.043-.288.043-.475 0-.627-.317-1.08a1.9 1.9 0 0 0-.864-.687 3.1 3.1 0 0 0-1.243-.235q-2.55 0-3.163 2.477a29 29 0 0 0-.331 1.56c-.03.192-.044.35-.044.485 0 .628.226 1.118.677 1.459m2.741-1.09a1.3 1.3 0 0 1-.854.298c-.576 0-.87-.274-.864-.83q.001-.201.038-.38c.11-.585.216-1.075.326-1.478q.152-.618.504-.912a1.32 1.32 0 0 1 .864-.298q.857 0 .855.821-.002.201-.039.389-.108.631-.316 1.478-.153.619-.514.912m2.808 1.445c.039.044.087.063.154.063h1.224q.093 0 .173-.063a.26.26 0 0 0 .1-.163l.413-1.973h1.215q1.18.001 1.857-.494.69-.495.912-1.531.052-.246.053-.47-.001-.785-.614-1.2-.605-.412-1.604-.413h-2.395q-.093-.001-.173.062a.24.24 0 0 0-.1.163l-1.244 5.856q-.015.093.03.163m3.999-3.585a1.07 1.07 0 0 1-.658.206h-1.032l.34-1.613h1.08c.245 0 .423.048.524.144q.152.139.154.399 0 .117-.03.269a1 1 0 0 1-.379.595" clip-rule="evenodd"/></g><defs><clipPath id="a"><path fill="#fff" d="M0 0h24v24H0z"/></clipPath></defs></svg>
